src/assets/img/icons/buttons/rules.svg

<svg xmlns:xlink="http://www.w3.org/1999/xlink" height="20.15" width="20.95" xmlns="http://www.w3.org/2000/svg"><use height="20.15" width="20.95" xlink:href="#a"/><defs><linearGradient gradientTransform="matrix(.0064 0 0 .0123 5.2 -.05)" gradientUnits="userSpaceOnUse" id="b" spreadMethod="pad" x1="-819.2" x2="819.2"><stop offset="0" stop-color="#ffc2ea"/><stop offset="1" stop-color="#fff"/></linearGradient><linearGradient gradientTransform="matrix(0 -.0018 .0043 0 .1 .85)" gradientUnits="userSpaceOnUse" id="c" spreadMethod="pad" x1="-819.2" x2="819.2"><stop offset="0" stop-color="#6b1449"/><stop offset="1" stop-color="#af2076"/></linearGradient><linearGradient gradientTransform="matrix(0 -.0017 .0015 0 0 4.05)" gradientUnits="userSpaceOnUse" id="d" spreadMethod="pad" x1="-819.2" x2="819.2"><stop offset="0" stop-color="#6b1449"/><stop offset="1" stop-color="#af2076"/></linearGradient><linearGradient gradientTransform="matrix(0 -.0016 .0016 0 -.1 -5.5)" gradientUnits="userSpaceOnUse" id="e" spreadMethod="pad" x1="-819.2" x2="819.2"><stop offset="0" stop-color="#6b1449"/><stop offset="1" stop-color="#af2076"/></linearGradient><g id="a" fill-rule="evenodd"><path d="M-10.5-6.5 0-10.1v20.15Q-3.65 7-5.9 3.85-8.4.25-10.5-6.5" fill="#fff" transform="translate(10.5 10.1)"/><path d="m0-10.1 10.45 3.6q-2 6.75-4.6 10.35Q3.9 6.8 0 10.05V-10.1" fill="url(#b)" transform="translate(10.5 10.1)"/><path d="M4.85-4.5v.35L3.6 1.75Q2.25 2.5.05 2.5q-2.35 0-3.65-.75l-1.25-5.8v-.4h.4v.15h-.05l2.7 2.7 1.55-2.55v-.3h.4v.35H.2l1.6 2.5 2.6-2.55h.05v-.35h.4" fill="url(#c)" transform="translate(10.5 10.1)"/><path d="M3.6 2.8 3.5 4Q2.4 5.25.1 5.25h-.2q-2.35 0-3.35-1.25V2.8l1.8.8 1.7.25L1.7 3.6q1.3-.3 1.9-.8" fill="url(#d)" transform="translate(10.5 10.1)"/><path d="M-.05-6.8q.55 0 .9.4.4.4.4.95 0 .5-.4.9t-.9.4q-.55 0-.95-.4-.4-.4-.4-.9 0-.55.4-.95.35-.4.95-.4m-5.85.4q.35-.4.95-.4.55 0 .95.4.35.35.35.95 0 .55-.35.9-.5.4-.95.4-.55 0-.95-.4-.4-.4-.4-.9 0-.55.4-.95m12.05.95q0 .5-.4.9t-.9.4q-.5 0-1-.4-.35-.35-.35-.9 0-.6.35-.95.4-.4 1-.4.55 0 .9.4.4.4.4.95" fill="url(#e)" transform="translate(10.5 10.1)"/></g></defs></svg>

<?xml version="1.0" encoding="UTF-8" standalone="no"?>
<svg xmlns:xlink="http://www.w3.org/1999/xlink" height="20.15px" width="20.95px" xmlns="http://www.w3.org/2000/svg">
  <g transform="matrix(1.0, 0.0, 0.0, 1.0, 10.5, 10.1)">
    <use height="20.15" transform="matrix(1.0, 0.0, 0.0, 1.0, -10.5, -10.1)" width="20.95" xlink:href="#shape0"/>
  </g>
  <defs>
    <g id="shape0" transform="matrix(1.0, 0.0, 0.0, 1.0, 10.5, 10.1)">
      <path d="M-10.5 -6.5 L0.0 -10.1 0.0 10.05 Q-3.65 7.0 -5.9 3.85 -8.4 0.25 -10.5 -6.5" fill="#ffffff" fill-rule="evenodd" stroke="none"/>
      <path d="M0.0 -10.1 L10.45 -6.5 Q8.45 0.25 5.85 3.85 3.9 6.8 0.0 10.05 L0.0 -10.1" fill="url(#gradient0)" fill-rule="evenodd" stroke="none"/>
      <path d="M4.85 -4.5 L4.85 -4.15 3.6 1.75 Q2.25 2.5 0.05 2.5 -2.3 2.5 -3.6 1.75 L-4.85 -4.05 -4.85 -4.45 -4.45 -4.45 -4.45 -4.3 -4.5 -4.3 -1.8 -1.6 -0.25 -4.15 -0.25 -4.45 0.15 -4.45 0.15 -4.1 0.2 -4.1 1.8 -1.6 4.4 -4.15 4.45 -4.15 4.45 -4.5 4.85 -4.5" fill="url(#gradient1)" fill-rule="evenodd" stroke="none"/>
      <path d="M3.6 2.8 L3.5 4.0 Q2.4 5.25 0.1 5.25 L-0.1 5.25 Q-2.45 5.25 -3.45 4.0 L-3.45 2.8 -1.65 3.6 0.05 3.85 1.7 3.6 Q3.0 3.3 3.6 2.8" fill="url(#gradient2)" fill-rule="evenodd" stroke="none"/>
      <path d="M-0.05 -6.8 Q0.5 -6.8 0.85 -6.4 1.25 -6.0 1.25 -5.45 1.25 -4.95 0.85 -4.55 0.45 -4.15 -0.05 -4.15 -0.6 -4.15 -1.0 -4.55 -1.4 -4.95 -1.4 -5.45 -1.4 -6.0 -1.0 -6.4 -0.65 -6.8 -0.05 -6.8 M-5.9 -6.4 Q-5.55 -6.8 -4.95 -6.8 -4.4 -6.8 -4.0 -6.4 -3.65 -6.05 -3.65 -5.45 -3.65 -4.9 -4.0 -4.55 -4.5 -4.15 -4.95 -4.15 -5.5 -4.15 -5.9 -4.55 -6.3 -4.95 -6.3 -5.45 -6.3 -6.0 -5.9 -6.4 M6.15 -5.45 Q6.15 -4.95 5.75 -4.55 5.35 -4.15 4.85 -4.15 4.35 -4.15 3.85 -4.55 3.5 -4.9 3.5 -5.45 3.5 -6.05 3.85 -6.4 4.25 -6.8 4.85 -6.8 5.4 -6.8 5.75 -6.4 6.15 -6.0 6.15 -5.45" fill="url(#gradient3)" fill-rule="evenodd" stroke="none"/>
    </g>
    <linearGradient gradientTransform="matrix(0.0064, 0.0, 0.0, 0.0123, 5.2, -0.05)" gradientUnits="userSpaceOnUse" id="gradient0" spreadMethod="pad" x1="-819.2" x2="819.2">
      <stop offset="0.0" stop-color="#ffc2ea"/>
      <stop offset="1.0" stop-color="#ffffff"/>
    </linearGradient>
    <linearGradient gradientTransform="matrix(0.0, -0.0018, 0.0043, 0.0, 0.1, 0.85)" gradientUnits="userSpaceOnUse" id="gradient1" spreadMethod="pad" x1="-819.2" x2="819.2">
      <stop offset="0.0" stop-color="#6b1449"/>
      <stop offset="1.0" stop-color="#af2076"/>
    </linearGradient>
    <linearGradient gradientTransform="matrix(0.0, -0.0017, 0.0015, 0.0, 0.0, 4.05)" gradientUnits="userSpaceOnUse" id="gradient2" spreadMethod="pad" x1="-819.2" x2="819.2">
      <stop offset="0.0" stop-color="#6b1449"/>
      <stop offset="1.0" stop-color="#af2076"/>
    </linearGradient>
    <linearGradient gradientTransform="matrix(0.0, -0.0016, 0.0016, 0.0, -0.1, -5.5)" gradientUnits="userSpaceOnUse" id="gradient3" spreadMethod="pad" x1="-819.2" x2="819.2">
      <stop offset="0.0" stop-color="#6b1449"/>
      <stop offset="1.0" stop-color="#af2076"/>
    </linearGradient>
  </defs>
</svg>
